static/img/kroki/58494cb781f0c02aacca690e1074581a.svg

<?xml version="1.0" encoding="us-ascii" standalone="no"?><svg xmlns="http://www.w3.org/2000/svg" xmlns:xlink="http://www.w3.org/1999/xlink" contentStyleType="text/css" height="374px" preserveAspectRatio="none" style="width:196px;height:374px;" version="1.1" viewBox="0 0 196 374" width="196px" zoomAndPan="magnify"><defs/><g><!--class account--><g id="elem_account"><rect codeLine="23" fill="#3D176E" height="39.7891" id="account" rx="2.5" ry="2.5" style="stroke:#000D19;stroke-width:0.5;" width="107" x="44.5" y="167.79"/><ellipse cx="59.5" cy="187.6845" fill="#ADD1B2" rx="11" ry="11" style="stroke:#181818;stroke-width:1.0;"/><path d="M62.4688,193.3252 Q61.8906,193.622 61.25,193.7627 Q60.6094,193.9189 59.9063,193.9189 Q57.4063,193.9189 56.0781,192.2783 Q54.7656,190.622 54.7656,187.497 Q54.7656,184.372 56.0781,182.7158 Q57.4063,181.0595 59.9063,181.0595 Q60.6094,181.0595 61.25,181.2158 Q61.9063,181.372 62.4688,181.6689 L62.4688,184.3877 Q61.8438,183.8095 61.25,183.5439 Q60.6563,183.2627 60.0313,183.2627 Q58.6875,183.2627 58,184.3408 Q57.3125,185.4033 57.3125,187.497 Q57.3125,189.5908 58,190.6689 Q58.6875,191.7314 60.0313,191.7314 Q60.6563,191.7314 61.25,191.4658 Q61.8438,191.1845 62.4688,190.6064 L62.4688,193.3252 Z " fill="#000000"/><text fill="#D9B8FF" font-family="Helvetica" font-size="17" lengthAdjust="spacing" textLength="65" x="78.5" y="193.5698">account</text></g><!--class onprem_location--><g id="elem_onprem_location"><rect codeLine="26" fill="#3D176E" height="39.7891" id="onprem_location" rx="2.5" ry="2.5" style="stroke:#000D19;stroke-width:0.5;" width="182" x="7" y="328.58"/><ellipse cx="22" cy="348.4745" fill="#ADD1B2" rx="11" ry="11" style="stroke:#181818;stroke-width:1.0;"/><path d="M24.9688,354.1152 Q24.3906,354.412 23.75,354.5527 Q23.1094,354.7089 22.4063,354.7089 Q19.9063,354.7089 18.5781,353.0683 Q17.2656,351.412 17.2656,348.287 Q17.2656,345.162 18.5781,343.5058 Q19.9063,341.8495 22.4063,341.8495 Q23.1094,341.8495 23.75,342.0058 Q24.4063,342.162 24.9688,342.4589 L24.9688,345.1777 Q24.3438,344.5995 23.75,344.3339 Q23.1563,344.0527 22.5313,344.0527 Q21.1875,344.0527 20.5,345.1308 Q19.8125,346.1933 19.8125,348.287 Q19.8125,350.3808 20.5,351.4589 Q21.1875,352.5214 22.5313,352.5214 Q23.1563,352.5214 23.75,352.2558 Q24.3438,351.9745 24.9688,351.3964 L24.9688,354.1152 Z " fill="#000000"/><text fill="#D9B8FF" font-family="Helvetica" font-size="17" lengthAdjust="spacing" textLength="140" x="41" y="354.3598">onprem_location</text></g><!--class resource--><g id="elem_resource"><rect codeLine="29" fill="#3D176E" height="39.7891" id="resource" rx="2.5" ry="2.5" style="stroke:#000D19;stroke-width:0.5;" width="113" x="41.5" y="7"/><ellipse cx="56.5" cy="26.8945" fill="#ADD1B2" rx="11" ry="11" style="stroke:#181818;stroke-width:1.0;"/><path d="M59.4688,32.5352 Q58.8906,32.832 58.25,32.9727 Q57.6094,33.1289 56.9063,33.1289 Q54.4063,33.1289 53.0781,31.4883 Q51.7656,29.832 51.7656,26.707 Q51.7656,23.582 53.0781,21.9258 Q54.4063,20.2695 56.9063,20.2695 Q57.6094,20.2695 58.25,20.4258 Q58.9063,20.582 59.4688,20.8789 L59.4688,23.5977 Q58.8438,23.0195 58.25,22.7539 Q57.6563,22.4727 57.0313,22.4727 Q55.6875,22.4727 55,23.5508 Q54.3125,24.6133 54.3125,26.707 Q54.3125,28.8008 55,29.8789 Q55.6875,30.9414 57.0313,30.9414 Q57.6563,30.9414 58.25,30.6758 Q58.8438,30.3945 59.4688,29.8164 L59.4688,32.5352 Z " fill="#000000"/><text fill="#D9B8FF" font-family="Helvetica" font-size="17" lengthAdjust="spacing" textLength="71" x="75.5" y="32.7798">resource</text></g><!--reverse link resource to account--><g id="link_resource_account"><path codeLine="32" d="M98,65.05 C98,95.57 98,136.9 98,167.46 " fill="none" id="resource-backto-account" style="stroke:#FFAF37;stroke-width:2.0;"/><polygon fill="none" points="98,47.05,92,65.05,104,65.05,98,47.05" style="stroke:#FFAF37;stroke-width:2.0;"/></g><!--reverse link account to onprem_location--><g id="link_account_onprem_location"><path codeLine="33" d="M98,225.84 C98,256.36 98,297.69 98,328.25 " fill="none" id="account-backto-onprem_location" style="stroke:#FFAF37;stroke-width:2.0;"/><polygon fill="none" points="98,207.84,92,225.84,104,225.84,98,207.84" style="stroke:#FFAF37;stroke-width:2.0;"/></g><!--SRC=[XP1BRy9038Jl-HKhSKOYHIqWzKAHglQ2gj9xvUnwoIh9ElAQ8lhuxuK6q3RXSVJCf_7OkJEeiAfbeogiCkIGXCBv6XWgDMMczOnAOjMp5knmr3OVoSjLO0uLgYSiFr2SXZRnbZjTU0n1tKJM0-XYoRJofeaN1X-s5dg9g5a98Kn5s6KhmQYCcMHZQzjaExGtDEde3ZiOiK7U8uF1mAIJDd9rrSMxZyJ2VQ9AuwVDIR1JixFYZxhOSaT49Jk77lop7L_06EUNwZRINfjEx97_wOiS3Artj8Kon6k282F9fiPPvogSZ8qTdOIVpy69thrEWTPRJzHNalpi9V8rO_LUaWPnv6EBCT2ADJRQSRh_xlVxXwZa4DcehRJa5m00]--></g></svg>

<svg xmlns="http://www.w3.org/2000/svg" width="196" height="374" viewBox="0 0 196 374"><rect width="107" height="39.789" x="44.5" y="167.79" fill="#3D176E" rx="2.5" ry="2.5" style="stroke:#000d19;stroke-width:.5"/><circle cx="59.5" cy="187.685" r="11" fill="#ADD1B2" style="stroke:#181818;stroke-width:1"/><path d="M62.469 193.325q-.578.297-1.219.438-.64.156-1.344.156-2.5 0-3.828-1.64-1.312-1.657-1.312-4.782t1.312-4.781q1.328-1.656 3.828-1.656.703 0 1.344.156.656.156 1.219.453v2.719q-.625-.578-1.219-.844-.594-.281-1.219-.281-1.343 0-2.031 1.078-.687 1.062-.687 3.156t.687 3.172q.688 1.062 2.031 1.062.625 0 1.219-.265.594-.281 1.219-.86z"/><text x="78.5" y="193.57" fill="#D9B8FF" font-family="Helvetica" font-size="17" textLength="65">account</text><rect width="182" height="39.789" x="7" y="328.58" fill="#3D176E" rx="2.5" ry="2.5" style="stroke:#000d19;stroke-width:.5"/><circle cx="22" cy="348.474" r="11" fill="#ADD1B2" style="stroke:#181818;stroke-width:1"/><path d="M24.969 354.115q-.578.297-1.219.438-.64.156-1.344.156-2.5 0-3.828-1.64-1.312-1.657-1.312-4.782t1.312-4.781q1.328-1.656 3.828-1.656.703 0 1.344.156.656.156 1.219.453v2.719q-.625-.579-1.219-.844-.594-.281-1.219-.281-1.343 0-2.031 1.078-.687 1.062-.687 3.156t.687 3.172q.688 1.062 2.031 1.062.625 0 1.219-.265.594-.281 1.219-.86z"/><text x="41" y="354.36" fill="#D9B8FF" font-family="Helvetica" font-size="17" textLength="140">onprem_location</text><rect width="113" height="39.789" x="41.5" y="7" fill="#3D176E" rx="2.5" ry="2.5" style="stroke:#000d19;stroke-width:.5"/><circle cx="56.5" cy="26.895" r="11" fill="#ADD1B2" style="stroke:#181818;stroke-width:1"/><path d="M59.469 32.535q-.578.297-1.219.438-.64.156-1.344.156-2.5 0-3.828-1.64-1.312-1.657-1.312-4.782t1.312-4.781q1.328-1.656 3.828-1.656.703 0 1.344.156.656.156 1.219.453v2.719q-.625-.578-1.219-.844-.594-.281-1.219-.281-1.343 0-2.031 1.078-.687 1.062-.687 3.156T55 29.879q.688 1.062 2.031 1.062.625 0 1.219-.265.594-.281 1.219-.86z"/><text x="75.5" y="32.78" fill="#D9B8FF" font-family="Helvetica" font-size="17" textLength="71">resource</text><path fill="none" d="M98 65.05v102.41m0-120.41-6 18h12zm0 178.79v102.41m0-120.41-6 18h12z" style="stroke:#ffaf37;stroke-width:2"/></svg>
